X:18
%%score 1 2
%%staffscale 1.25
T: Sellenger's Round or The Beginning of the World
M: 6/8
L: 1/8
K: C
V:1 clef-treble
V:2 clef-bass octave=-1
V:1
!>!G3-G>A[FB] & B,3-B,2 x | c3-c>d[Be] & E3-E2 x|d2c B>AB & A3 G2 F|[Ec]6|
V:2
G2F E2D|C2B, A,2G,|F,3 G,3|A,>G,F, E,D,C,|
V:1
!>!G3-G>A[FB] & B,3-B,2 x|c3-c>d[Be] & E3-E2 x|d2c B>AB & A3 G2 F|[Ec]3-[Ec]2 [Fd]|[Ge]3-[Ge]>dc|
V:2
G2F E2D|C2B, A,2G,|F,3 G,3|C,3 C3|C3 E3|
V:1
[Bd]3-[Bd]2d|B>cd- d>cB&G6|(A3d2)B & ^F3-F2G|c>dc B2G & G3 D3|A>Bc B2G & ^F3 D3|
V:2
G3 G,3|G3 B3|(d3D2)G|E3 G3|D3 G,3|
V:1
A2G ^F>EF & E3 D2C|[B,G]3-[B,G]2 A/B/|c>dc B2G & G3 D3|A>Bc B2G & ^F3 D3|A>BG ^FEF & E3 D2C|
V:2
C3 D3|E>DC B,A,G,|E3 G3|D3 G,3|C3 D3|
V:1
[B,G]6|!>!G3-G>A[FB] & B,3-B,2 x|c3-c>d[Be] & E3-E2x|d2c B>AB & A3 G2F|[Ec]6|
V:2
G,3 !>!G3-|G2=F E2D|C2B, A,2G,|F,3 G,3|A,>G,F, E,D,C,|
V:1
!>!G3-G>AB & B,3-B,2 x|c3-c>d[Be] & E3 E2x|d2c B>AB & A3 G2F|[Ec]6||
V:2
G2F E2D|C2B, A,2G,|F,3 G,3|C,6||

